!!!!SEGMENT: pl-kk--kk-i-382--079_anonim--offertorium-nro-20.krn
!!!cenid: 18xx:1581
!!!COM: Anonim
!!!COM-rismid: pe30004985
!!!CDT:
!!!CNT:
!!!OTL: Offertorium Nro 20
!!!PDT:
!!!AGN: Sacred
!!!SMS-siglum: PL-Kk
!!!SMS-shelfmark: Kk.I.382
!!!SMS-shelfwork: 065 W
!!!SMS-variant:
!!!SMS-altvar:
!!!NIFC-rismid: 1001142268
!!!URL-scan: http://repozytorium.nifc.pl/skany/pl-kk-nut--i-382
!!!ONB-nifc: UWAGA: Offertoria od skanu 0041 (S/T1), 0113 (T2), 0185 (A/B1), 0262 (B2)
!!!ONB-nifc: UWAGA: obsada: S/T1, A/B1, T2, B2. Skany 0048, 0193, 0120-0121, 0270
**kern	**text	**kern	**text	**kern	**text	**kern	**text
*part4	*part4	*part3	*part3	*part2	*part2	*part1	*part1
*staff4	*staff4	*staff3	*staff3	*staff2	*staff2	*staff1	*staff1
*Ibass	*	*Itenor	*	*Ialto	*	*Itenor	*
*I"Basso II	*	*I"Tenore II	*	*I"Alto. vel Basso I	*	*I"Soprano vel Tenore I.	*
*I'B2	*	*I'T2	*	*I'A / B1	*	*I'S / T1	*
*clefF4	*	*clefC4	*	*clefC3	*	*clefC1	*
*k[b-e-a-]	*	*k[b-e-a-]	*	*k[b-e-a-]	*	*k[b-e-a-]	*
*E-:	*	*E-:	*	*E-:	*	*E-:	*
*M4/4	*	*M4/4	*	*M4/4	*	*M4/4	*
*met(C.)	*	*met(C.)	*	*met(C.)	*	*met(C.)	*
=1	=1	=1	=1	=1	=1	=1	=1
*all\right	*	*all\right	*	*all\right	*	*all\right	*
!LO:TX:t=P:problem:znaki[BB- E- A-]	!	!	!	!	!	!	!
!LO:TX:a:t=Nro. 20.\nin Es.	!	!LO:TX:a:t=Nro 20.	!	!LO:TX:a:t=Nro&colon; 20.	!	!LO:TX:a:t=Nro. 20.	!
4E-\	Zdro-	4G/	Zdro-	4e-\	Zdro-	4b-\	Zdro-
4E-\	-waś	4e-\	-waś	4g\	-waś	4g\	-waś
4E-\	bądź	4B-\	bądź	4g\	bądź	4ee-\	bądź
4E-\	Ma-	(8A-\L	Ma-	(8f\L	Ma-	4b-\	Ma-
.	.	8G\J)	.	8e-\J)	.	.	.
=2	=2	=2	=2	=2	=2	=2	=2
*	*	*2\right	*	*2\right	*	*2\right	*
2AA-/	-ri-	2A-\	-ri-	2e-\	-ri-	2cc\	-ri-
4E-\	-a,	4G\	-a	4e-\	-a	4b-\	-a
!LO:TX:b:i:t=V&colon;S&colon;	!	!	!	!	!	!	!
4r	.	4r	.	4r	.	4r	.
!LO:PB:g=original	!	!	!	!	!	!	!
=3	=3	=3	=3	=3	=3	=3	=3
4E-\	łas-	4B-\	łas-	4g\	łas-	4gg\	łas-
4E-\	-kiś	4B-\	-kiś	4g\	-kiś	4ee-\	-kiś
4E-\	Bo-	4G/	Bo-	4b-\	Bo-	4b-\	Bo-
4E-\	-żey	(8G/L	-żey	4b-\	-żey	(8ee-\L	-żey
.	.	8B-/J)	.	.	.	8gg\J)	.
!	!	!	!	!	!	!LO:LB:g=original	!
=4	=4	=4	=4	=4	=4	=4	=4
2BB-/	peł-	2B-\	peł-	2dd\	peł-	2ff\	peł-
4BB-/	-na	4B-\	-na	4dd\	-na	4ff\	-na
4r	.	4r	.	4r	.	4r	.
!	!	!LO:LB:g=original	!	!LO:LB:g=original	!	!	!
=5	=5	=5	=5	=5	=5	=5	=5
4E-\	pan	4G/	Pan	4e-\	Pan	4b-\	Pan
8E-\	z to-	8e-\	z to-	8g\	z to-	8g\	z to-
8E-\	-bą	8e-\	-bą	8g\	-bą	8g\	-bą
8E-\	bło-	8B-\	bło-	8g\	bło-	8ee-\	bło-
8E-\	-go-	8B-\	-go-	8g\	-go-	8ee-\	-go-
8E-\	-sła-	8A-\	-sła-	8f\	-sła-	8b-\	-sła-
8E-\	-wio-	8G/	-wio-	8e-\	-wio-	8b-\	-wio-
!LO:LB:g=original	!	!	!	!	!	!	!
=6	=6	=6	=6	=6	=6	=6	=6
2AA-/	-naś	2A-\	-naś	2e-\	-naś	2cc\	-naś
4E-\	ty	4G/	ty,	4e-\	ty	4b-\	ty
4r	.	4r	.	4r	.	4r	.
!	!	!	!	!	!	!LO:LB:g=original	!
=7	=7	=7	=7	=7	=7	=7	=7
4E-\	mię-	4B-\	mię-	4g\	mię-	4gg\	mię-
4E-\	-dzy	4B-\	-dzy	4g\	-dzy	4ee-\	-dzy
4E-\	nie-	4B-\	nie-	4b-\	nie-	4b-\	nie-
4E-\	-wia-	(8G/L	-wias-	4b-\	-wia-	(8ee-\L	-wia-
.	.	8B-/J)	.	.	.	8gg\J)	.
=8	=8	=8	=8	=8	=8	=8	=8
2BB-/	-sta-	2B-\	-ta-	2dd\	-sta-	2ff\	-sta-
4B-\	-mi	4B-\	-mi,	4dd\	-mi,	4ff\	-mi
!	!	!LO:TX:b:t=V&colon;S&colon;	!	!	!	!	!
4r	.	4r	.	4r	.	4r	.
!	!	!LO:PB:g=original	!	!LO:LB:g=original	!	!	!
=9	=9	=9	=9	=9	=9	=9	=9
4BB-/	i	4A-\	i	4a-\	i	4ff\	i
8BB-/	bło-	8A-/	bło-	8a-\	bło-	8ff\	bło-
8BB-/	-go-	8G/	-go-	8g\	-go-	8ee-\	-go-
4BB-/	-sła-	4F/	-sła-	4f\	-sła-	4dd\	-sła-
4D\	-wion	(8F/L	-wion	(8f\L	-wion	4b-\	-wion
!	!	!	!	!	!	!LO:TX:b:i:t=V&colon;S&colon;	!
.	.	8B-/J)	.	8b-\J)	.	.	.
!LO:LB:g=original	!	!	!	!	!	!LO:PB:g=original	!
=10	=10	=10	=10	=10	=10	=10	=10
4E-\	o-	4G/	O-	4b-\	O-	4gg\	o-
4F\	-woc	4A-/	-woc	4b-\	-woc	4gg\	-woc
4G\	ży-	4B-\	Ży-	4b-\	Ży-	4ee-\	ży-
8A-\	-wo-	8d\	-wo-	8b-\	-wo-	8ff\	-wo-
8G\	-ta	8e-\	-ta	8b-\	-ta	8gg\	-ta
=11	=11	=11	=11	=11	=11	=11	=11
*2\right	*	*	*	*	*	*	*
2F\	two-	2d\	two-	2b-\	two-	2aa-\	two-
4E-\	-ie-	4e-\	-ie-	4b-\	-ie-	4gg\	-ie-
4E-\	-go	4e-\	-go	4b-\	-go	4gg\	-go
=12	=12	=12	=12	=12	=12	=12	=12
2BB-/	Je-	2d\	Je-	2b-\	Je-	2ff\	Je-
4BB-/	-zus	4d\	-zus,	4b-\	-zus	4ff\	-zus
4r	.	4r	.	4r	.	4r	.
!	!	!LO:LB:g=original	!	!	!	!LO:LB:g=original	!
=13	=13	=13	=13	=13	=13	=13	=13
!	!	!LO:TX:t=P:problem:początek repetycji ołówkiem	!	!LO:TX:t=P:problem:początek repetycji (pomarańczową kredką)	!	!LO:TX:t=P:problem:początek repetycji ołówkiem	!
4E-\	Swię-	4B-\	Swię-	4g\	Swię-	4gg\	Swię-
8D\	-ta	8Bn\	-ta	8g\	-ta	8ff\	-ta
8D\	Ma-	8B\	Ma-	8g\	Ma-	8ff\	Ma-
!LO:LB:g=original	!	!	!	!	!	!	!
4C/	-ri-	4c\	-ri-	4g\	-ri-	4ee-\	-ri-
4G\	-a	4B\	-a	4g\	-a	4dd\	-a
!	!	!	!	!	!	!LO:LB:g=original	!
=14	=14	=14	=14	=14	=14	=14	=14
4A-\	Mat-	4c\	Mat-	4a-\	Mat-	4cc\	mat-
4F\	-ko	4c\	-ko	4a-\	-ko	4aa-\	-ko
4G\	Bo-	4en\	Bo-	4b-\	Bo-	4gg\	Bo-
4A-\	-ża	4f\	-ża	4cc\	-ża	4ff\	-ża
=15	=15	=15	=15	=15	=15	=15	=15
2B-\	modl	2G/	modl	(4b-\	modl	2ee-\	modl
.	.	.	.	4g\)	.	.	.
4BB-/	się	4A-\	sie	4f\	się	4dd\	sie
4BB-/	za	4A-\	za	4b-\	za	4dd\	za
=16	=16	=16	=16	=16	=16	=16	=16
2E-\	na-	2G/	na-	2b-\	na-	2ee-\	na-
4E-\	-mi	4G/	-mi	4b-\	-mi	4ee-\	-mi
4r	.	4r	.	4r	.	4r	.
=17	=17	=17	=17	=17	=17	=17	=17
4E-\	te-	4B-X\	te-	4g\	te-	4gg\	te-
4D\	-raz	4Bn\	-raz	4g\	-raz	4ff\	-raz
!LO:LB:g=original	!	!LO:LB:g=original	!	!LO:LB:g=original	!	!	!
4C/	i	4c\	i	4g\	i	4ee-\	i
4G\	w go-	4Bn\	w go-	4g\	w go-	4dd\	w go-
!	!	!	!	!	!	!LO:LB:g=original	!
=18	=18	=18	=18	=18	=18	=18	=18
4A-\	-dzi-	4c\	-dźi-	4a-\	-dźi-	4cc\	-dzi-
4F\	-ne	4c\	-ne	4a-\	-ne	4aa-\	-ne
4G\	smier-	4en\	śmier-	4b-\	śmier-	4gg\	smier-
4A-\	-ci	4f\	-ci	4cc\	-ci	4ff\	-ci
=19	=19	=19	=19	=19	=19	=19	=19
2B-\	na-	2G/	na-	(4b-\	na-	2ee-\	na-
.	.	.	.	4g\)	.	.	.
2BB-/	-szey	2A-X/	-szey	(4f\	-szey	2dd\	-szey
.	.	.	.	4b-\)	.	.	.
=20	=20	=20	=20	=20	=20	=20	=20
!	!	!LO:TX:a:t=P:problem:dopisane ołówkiem nuty i "g g"	!	!LO:TX:a:t=P:problem:dużo nut pokreślonych ołówkiem	!	!LO:TX:a:t=P:problem:dopisane 2g ołówkiem	!
2E-\	A-	2G/	A-	2b-\	A-	2ee-\	A-
!	!	!	!	!	!	!LO:TX:a:t=P:problem:dopisane 4g ołówkiem	!
4E-\	-men.	4G/	-men.	4b-\	-men.	4ee-\	-men.
!	!	!LO:TX:t=P:problem:koniec repetycji (ołówkiem)	!	!LO:TX:t=P:problem:koniec repetycji (pomarańczową kredką)	!	!LO:TX:t=P:problem:koniec repetycji (ołówkiem)	!
4r	.	4r	.	4r	.	4r	.
==	==	==	==	==	==	==	==
*-	*-	*-	*-	*-	*-	*-	*-
!!!system-decoration: [(s1,s2,s3,s4)]
!!!ENC: Marta Lawrence
!!!END: 2021-02-12
!!!ENC: Andrzej Borzym
!!!END: 2021-02-01
